X: 1
T:The Ice in the Bucket (2nd Setting)
M:C
L:1/8
Q:80
C:Composed by T. Tully
S:Reel
K:HP
[| f2|
{g}GA{gAGAG}A2{g}BA{gAGAG}A2|
{g}Bd{c}dc{gdedc}d2{g}ef|  !
{a}gf{g}ed{g}Bd{gdedc}d2|
{g}Be{A}eA{GAG}e2{g}f2|
{g}GA{gAGAG}A2{g}BA{gAGAG}A2|  !
{g}Bd{c}dc{gdedc}d2{g}ef|
{a}gf{g}ed{g}Bd{gdedc}d2|
{g}Ad{c}dc{gdedc}d2|] [|  !
{g}fg|
ag{a}faAd{gdedc}d2|
{g}Be{A}eA{GAG}e2{g}fg|  !
ag{a}faAd{gdedc}d2|
{g}Ad{c}dc{gdedc}d2{g}fg|
ag{a}faAd{gdedc}d2|  !
{g}Be{A}eA{GAG}e2{g}f2|
{g}GA{gAGAG}A2{g}BA{gAGAG}A2|
{g}Bd{c}dc{gdedc}d2|]  !
